X: 1078
T: Hoş Gelişler Ola
C: (Anonim)
O: Turkey
F: http://compmusic.upf.edu/node/140
N: rehavi--mars--ikizaksak--hos_gelisler--
N: makam= rehavi
N: form= mars
N: usul= ikizaksak = 12/8
M: 12/8
L: 1/16
K: C _1/4B ^f  
Q: 1/4=216
%%MIDI tuningsystem comma53
d4 c2B2 A2G2 d4 c2B2 A2G2  | c2G2 c2z2 c2e2 c2e2 d2c2 B2A2  | 
w:  BANDO  |   | 
B4 B2d2 B2d2 c4 B2B2 A2G2  | A2G2 A2z2 A2c2 B4 A2A4G2  | \
w:   |   | 
G2B2 G2G2 A2F2 G2F2 G2A2 A2B2  | 
w:   | 
c2G2 c2z2 c2e2 c2e2 d2c2 B2A2  | B4 B2d2 B2d2 c4 B2B2 A2G2  | 
w:   |   | 
A2G2 A2z2 A2c2 B4 A2A4G2  | G2B2 A2G2 A2F2 G2F2 E2D6  | \
w:   |   | 
G4 G2B4A2 G2F2 G2A6  | 
w:  Hoş  ge liş *  ler_ *  o la   | 
G4 B2A2 B2A2 G2F2 E2D6  | G4 G2B4A2 G2F2 G2A6  | \
w:  Mus ta fa  Ke *  mal  *  Pa şa    |  Hoş  ge liş *  ler_ *  o la   | 
G4 B2A2 B2A2 G2F2 E2D6  | 
w:  Mus ta fa  Ke *  mal  *  Pa şa    | 
G2G2 G2B4A2 G2F2 G2A6  | G4 B2A2 B2A2 G2F2 E2D6  | \
w:  *  As ke rin  *  mil *  le tin   |  bay ra ğın la  *  çok  *  ya şa    | 
G2G2 G2B4A2 G2F2 G2A6  | 
w:  *  As ke rin  *  mil *  le tin   | 
G4 B2A2 B2A2 G2F2 E2D6  | d6d6 d6z6  | \
w:  bay ra ğın la  *  çok  *  ya şa    |  Arş  arş  arş   | 
d4 c2B4z2 d4 c2B4z2  | 
w:  i le ri  i le ri   | 
c6c4e2 d2e2 d2c2 B2A2  | B6B4d2 c2d2 c2B2 A2G2  | \
w:  arş  i le ri  SAZ  |  marş  i le ri   SAZ  | 
A6A4c2 B2c2 B2A4G2  | 
w:  Dön mez  ge ri  SAZ  | 
G4 B2A2 G2F2 G6z6  | c6c4e2 d2e2 d2c2 B2A2  | \
w:  Tür kün  as *  ke ri    |  Sağ dan  so la  SAZ  | 
B6B4d2 B2c2 B2B2 A2G2  | 
w:  sol dan  sa ğa   SAZ  | 
A4 A2A4c2 B2c2 B2A4G2  | G4 B2A2 G2F2 G6z6  | \
w:  Al  da  bay ra ğı  SAZ  |  düş man  üs *  tü ne    | 
d4 c2B2 A2G2 d4 c2B2 A2G2  | 
w:  BANDO  | 
c2G2 c2z2 c2e2 c2e2 d2c2 B2A2  | B4 B2d2 B2d2 c4 B2B2 A2G2  | 
w:   |   | 
A2G2 A2z2 A2c2 B4 A2A4G2  | G2B2 G2G2 A2F2 G2F2 G2A2 A2B2  | 
w:   |   | 
c2G2 c2z2 c2e2 c2e2 d2c2 B2A2  | B4 B2d2 B2d2 c4 B2B2 A2G2  | 
w:   |   | 
A2G2 A2z2 A2c2 B4 A2A4G2  | G2B2 A2G2 A2F2 G2F2 E2D6  | \
w:   |   | 
G4 G2B4A2 G2F2 G2A6  | 
w:  Hoş  ge liş *  ler_ *  o la   | 
G4 B2A2 B2A2 G2F2 E2D6  | G4 G2B4A2 G2F2 G2A6  | \
w:  Mus ta fa  Ke *  mal  *  Pa şa    |  Hoş  ge liş *  ler_ *  o la   | 
G4 B2A2 B2A2 G2F2 E2D6  | 
w:  Mus ta fa  Ke *  mal  *  Pa şa    | 
G2G2 G2B4A2 G2F2 G2A6  | G4 B2A2 B2A2 G2F2 E2D6  | \
w:  *  As ke rin  *  mil *  le tin   |  bay ra ğın la  *  çok  *  ya şa    | 
G2G2 G2B4A2 G2F2 G2A6  | 
w:  *  As ke rin  *  mil *  le tin   | 
G4 B2A2 B2A2 G2F2 E2D6  | d6d6 d6z6  | \
w:  bay ra ğın la  *  çok  *  ya şa    |  Arş  arş  arş   | 
d4 c2B4z2 d4 c2B4z2  | 
w:  i le ri  i le ri   | 
c6c4e2 d2e2 d2c2 B2A2  | B6B4d2 c2d2 c2B2 A2G2  | \
w:  arş  i le ri  SAZ  |  marş  i le ri   SAZ  | 
A6A4c2 B2c2 B2A4G2  | 
w:  Dön mez  ge ri  SAZ  | 
G4 B2A2 G2F2 G6z6  | c6c4e2 d2e2 d2c2 B2A2  | \
w:  Tür kün  as *  ke ri    |  Sağ dan  so la  SAZ  | 
B6B4d2 B2c2 B2B2 A2G2  | 
w:  sol dan  sa ğa   SAZ  | 
A4 A2A4c2 B2c2 B2A4G2  | G4 B2A2 G2F2 G6z6  | |


